X:1
T:Title
%%score { ( 1 3 ) | 2 }
L:1/8
Q:1/4=120
M:4/4
K:Eb
V:1 treble nm="Church Organ"
V:3 treble 
V:2 bass 
V:1
 z4 z2 E2 | B2 c2 B2 E2 | A2 B2 G2 B2 | E2 FG A2 [CFA]2 | [B,FA]2 [B,EG]2 [B,DF]2 [FGd]2 | %5
 [EGe]2 [_DEB]2 [CEc]2 [CGB]2 | [CFA]2 [Fc]2 [FB]2 [DA]2 | G2 B2 E2 F2 | z2 [DF]2 z4 |] %9
V:2
 z4 z2 [E,G,]2 | [G,B,E]2 [A,E]2 [G,B,E]2 [G,B,]2 | [F,A,C]2 [D,F,B,]2 [E,G,B,]2 [D,F,B,]2 | %3
 [C,G,C]2 [A,C][G,B,=E] [F,CF]2 E,2 | D,2 E,2 B,,2 =B,,2 | C,2 G,2 A,2 =E,2 | %6
 F,2 [E,A,]2 [D,B,]2 [B,,B,]2 | [E,B,E]2 [F,A,D]2 [G,B,]2 [A,CE]2 | [B,E]2 .[B,,B,]2 [E,G,]2 z2 |] %9
V:3
 x8 | x8 | x8 | x8 | x8 | x8 | x8 | x8 | G2 z A, E2 z2 |] %9

